src/icons/pinned.svg

<svg width="16" height="16" viewBox="0 0 16 16" fill="none" xmlns="http://www.w3.org/2000/svg">
<path d="M9.84003 1L8.92999 1.35999V3.5L5.51001 5.96997C4.99341 5.7243 4.41857 5.62731 3.84998 5.68994C3.28647 5.75344 2.75253 5.97536 2.31 6.32996V7.06006L5.15002 9.81995L0.960022 14H2.47998L5.91998 10.5601L8.40997 12.99H9.16998C9.52966 12.5667 9.75587 12.0464 9.81995 11.4946C9.88402 10.9429 9.78314 10.3845 9.53003 9.89001L12.08 6.56995H14.28L14.65 5.68994L9.84003 1ZM11.84 5.53003L11.41 5.73999L8.53998 9.48999L8.47998 10C8.76791 10.5501 8.84954 11.185 8.71002 11.79L6.71002 9.79004L5.95001 9.05005L3.59998 6.76001C4.2218 6.62943 4.86946 6.71036 5.44 6.98999L5.97003 6.93005L9.83002 4.14001L10.04 3.72998V2.57996L13.04 5.5L11.84 5.53003Z" fill="#C5C5C5"/>
</svg>

<svg width="16" height="16" xmlns="http://www.w3.org/2000/svg"><path d="M9.84 1l-.91.36V3.5L5.51 5.97a3.08 3.08 0 0 0-1.66-.28 3 3 0 0 0-1.54.64v.73l2.84 2.76L.96 14h1.52l3.44-3.44 2.49 2.43h.76a2.81 2.81 0 0 0 .36-3.1l2.55-3.32h2.2l.37-.88L9.84 1zm2 4.53l-.43.21-2.87 3.75-.06.51a2.6 2.6 0 0 1 .23 1.79l-2-2-.76-.74L3.6 6.76a2.85 2.85 0 0 1 1.84.23l.53-.06 3.86-2.79.21-.41V2.58l3 2.92-1.2.03z"/></svg>
